X: 39
T: Steal-partner Dance Song (e)
C: Anon.
%%abc-version 2.0
%%abcx-abcm2ps-target-version 5.9.1 (29 Sep 2008)
%%abc-creator hum2abc beta
%%abcx-conversion-date 2020/08/10 20:56:09
%%abc-copyright Electronic Copyright 2000 David Huron
%%abc-edited-by David Huron
%%abcx-initial-encoding-date August 28, 2000
%%humdrum-veritas 1656811761
%%humdrum-veritas-data 1817532338
%%linebreak <none>
%%barnumbers 0
L: 1/8
M: 2/4
Q: 1/4=92
K: F clef=bass
A,2A, G, | 
F, F,F,2 | 
F,> D,D,2 ]|:  
G,2G,3/ F,/ [I:setbarnb 5]| 
G,2A, G, | 
F, F, F, z | 
F,2D, D, | 
F, F,F,2 |]  
F,2G, F, | 
D, D,D,2[M:3/8] | 
D, F, F, | 


